X:1
T:Title
%%score { ( 1 3 ) | ( 2 4 ) }
L:1/8
M:6/8
K:Eb
V:1 treble nm="Grand Piano"
V:3 treble 
V:2 bass 
V:4 bass 
V:1
 z3 z2[Q:1/4=83] [GB] | [GB]>[FA]G GFE | [DF]3- [DF]2 [EG] | [FA]>[Ac][GB] [FA][EG][DF] | %4
 [B,EG]3- [B,EG]2 [B,GB] | [EGB]>[B,FA][B,EG] [B,EG][B,DF][B,E] | [DF]3- [DF]2 [DAc] | %7
[M:13/16] [EGB]>[B,EG][G,E][B,DF][B,DG]3/2[A,DF] |[M:3/4] [G,E]4- [G,E][EGB] | %9
 [EAc]>[EAc] [EAc][Ece] [EBd][EAc] | [EGB]4- [EGB][B,EG] | [DF]>[EG] [FA][Ac] [GB][FA] | %12
 [EG]4- [EG][GB] | [Ge]>[Bd] [Ac][GB] [FA][EG] | [Ac]4 z2 | [EGB]>[EAc] [EGB][B,FA] [B,EG][A,DF] | %16
[M:5/8] [G,E]-[G,E]- [G,E]3 |] %17
V:2
 z3 z2 [E,B,] | [E,E]>[E,B,][E,B,E] [E,B,E][F,B,D][G,B,] | [B,,B,]3- [B,,B,]2 [B,,B,] | %3
 [B,,B,]>[B,,B,][B,,B,] [B,,B,][B,,B,][B,,B,] | E,3- E,2 E, | E,>E,E, E,F,G, | B,3- B,2 B,, | %7
[M:13/16] E,>E,E,B,,B,,3/2B,, |[M:3/4] E,4- E,E, | A,>A, A,A, A,A, | E,4- E,E, | %11
 [B,,B,]>[B,,B,] [B,,B,][B,,B,] [B,,B,][B,,B,] | [E,B,]4- [E,B,][E,B,] | %13
 [E,B,]>[E,B,] [E,E][E,E] [E,E]E, | z2 z[K:treble] c2[K:bass] A,, | B,,>B,, B,,B,, B,,B,, | %16
[M:5/8] E,-E,- E,3 |] %17
V:3
 x6 | x6 | x6 | x6 | x6 | x6 | x6 |[M:13/16] x13/2 |[M:3/4] x6 | x6 | x6 | x6 | x6 | x6 | %14
 E3- [Ee]2 [EAc] | x6 |[M:5/8] x5 |] %17
V:4
 x6 | x6 | x6 | x6 | x6 | x6 | x6 |[M:13/16] x13/2 |[M:3/4] x6 | x6 | x6 | x6 | x6 | x6 | %14
 A,,6[K:treble][K:bass] | x6 |[M:5/8] x5 |] %17

